; generated by PrusaSlicer 2.7.1+win64 on 2024-02-18 at 21:18:31 UTC

; 

; external perimeters extrusion width = 0.42mm
; perimeters extrusion width = 0.44mm
; infill extrusion width = 0.44mm
; solid infill extrusion width = 0.44mm
; top infill extrusion width = 0.40mm
; support material extrusion width = 0.36mm
; first layer extrusion width = 0.42mm

M201 X500 Y500 Z100 E5000 ; sets maximum accelerations, mm/sec^2
M203 X500 Y500 Z10 E60 ; sets maximum feedrates, mm / sec
M204 S500 T1000 ; sets acceleration (S) and retract acceleration (R), mm/sec^2
M205 X8.00 Y8.00 Z0.40 E5.00 ; sets the jerk limits, mm/sec
M205 S0 T0 ; sets the minimum extruding and travel feed rate, mm/sec

; printing object leg_part.stl id:0 copy 0
; stop printing object leg_part.stl id:0 copy 0

;TYPE:Custom
G90 ; use absolute coordinates
M83 ; extruder relative mode
M104 S150 ; set temporary nozzle temp to prevent oozing during homing and auto bed leveling
M140 S60 ; set final bed temp
M190 S60 ; wait for bed temp to stabilize
G28 ; home all axis
G29 ; auto bed levelling
G1 Z50 F240
G1 X2.0 Y10 F3000
M104 S210 ; set final nozzle temp
M109 S210 ; wait for nozzle temp to stabilize
G1 Z0.28 F240
G92 E0
G1 X2.0 Y140 E10 F1500 ; prime the nozzle
G1 X2.3 Y140 F5000
G92 E0
G1 X2.3 Y10 E10 F1200 ; prime the nozzle
G92 E0
G21 ; set units to millimeters
G90 ; use absolute coordinates
M83 ; use relative distances for extrusion
; Filament gcode
M107
;LAYER_CHANGE
;Z:0.2
;HEIGHT:0.2
;BEFORE_LAYER_CHANGE
G92 E0
;0.2


G1 E-6 F3600
G1 Z.2 F9000
;AFTER_LAYER_CHANGE
;0.2
G1 X87.214 Y122.015
G1 Z.2
G1 E6 F2400
M204 S500
;TYPE:Skirt/Brim
;WIDTH:0.42
G1 F1200
G1 X89.106 Y121.434 E.06206
G1 X210.142 Y121.434 E3.795
G1 X211.726 Y121.828 E.05118
G1 X212.939 Y122.919 E.05115
G1 X213.519 Y124.811 E.06205
G1 X213.519 Y175.189 E1.57957
G1 X213.125 Y176.772 E.05115
G1 X212.035 Y177.985 E.05113
G1 X210.142 Y178.566 E.06209
G1 X89.106 Y178.566 E3.795
G1 X87.523 Y178.172 E.05115
G1 X86.31 Y177.081 E.05115
G1 X85.729 Y175.189 E.06206
G1 X85.729 Y124.811 E1.57957
G1 X86.123 Y123.228 E.05115
G1 X87.174 Y122.059 E.04929
; printing object leg_part.stl id:0 copy 0
G1 E-4.2 F3600
;WIPE_START
G1 F7200
G1 X87.214 Y122.015 E-.02825
G1 X89.106 Y121.434 E-.94012
G1 X90.857 Y121.434 E-.83163
;WIPE_END
G1 X199.594 Y171.906 F9000
G1 E6 F2400
;TYPE:Support material interface
;WIDTH:0.36
G1 F1200
G1 X199.347 Y171.906 E.00651
G1 X199.347 Y172.244 E.00891
G1 X199.748 Y172.244 E.01057
G1 X199.748 Y171.906 E.00891
G1 X200.257 Y171.906 E.01342
G1 X200.257 Y172.244 E.00891
G1 X200.765 Y172.244 E.01339
G1 X200.765 Y168.319 E.10348
G1 X201.274 Y168.319 E.01342
G1 X201.274 Y172.244 E.10348
G1 X201.782 Y172.244 E.01339
G1 X201.782 Y168.319 E.10348
G1 X201.964 Y168.319 E.0048
G1 X201.964 Y168.677 E.00944
G1 E-4.2 F3600
;WIPE_START
G1 F7200
G1 X201.964 Y168.319 E-.17005
G1 X201.782 Y168.319 E-.08645
G1 X201.782 Y171.569 E-1.5435
;WIPE_END
G1 X197.36 Y168.487 F9000
G1 E6 F2400
G1 F1200
G1 X197.473 Y168.487 E.00298
G1 X197.486 Y168.319 E.00444
G1 X197.206 Y168.319 E.00738
G1 X197.206 Y168.487 E.00443
G1 X196.697 Y168.487 E.01342
G1 X196.697 Y168.319 E.00443
G1 X196.189 Y168.319 E.01339
G1 X196.189 Y172.244 E.10348
G1 X196.697 Y172.244 E.01339
G1 X196.697 Y171.513 E.01927
G1 X197.206 Y171.513 E.01342
G1 X197.206 Y172.244 E.01927
G1 X197.714 Y172.244 E.01339
G1 X197.714 Y171.906 E.00891
G1 X198.039 Y171.906 E.00857
G1 X198.039 Y172.244 E.00891
G1 X197.869 Y172.244 E.00448
G1 E-4.2 F3600
;WIPE_START
G1 F7200
G1 X198.039 Y172.244 E-.08075
G1 X198.039 Y171.906 E-.16055
G1 X197.714 Y171.906 E-.15438
G1 X197.714 Y172.244 E-.16055
G1 X197.206 Y172.244 E-.2413
G1 X197.206 Y171.513 E-.34722
G1 X196.697 Y171.513 E-.24178
G1 X196.697 Y172.244 E-.34722
G1 X196.558 Y172.244 E-.06625
;WIPE_END
G1 X196.035 Y168.319 F9000
G1 E6 F2400
G1 F1200
G1 X195.68 Y168.319 E.00936
G1 X195.68 Y172.244 E.10348
G1 X195.172 Y172.244 E.01339
G1 X195.172 Y168.319 E.10348
G1 X194.663 Y168.319 E.01342
G1 X194.663 Y172.244 E.10348
G1 X194.155 Y172.244 E.01339
G1 X194.155 Y168.319 E.10348
G1 E-4.2 F3600
;WIPE_START
G1 F7200
G1 X194.155 Y172.109 E-1.8
;WIPE_END
G1 X210.142 Y175.189 F9000
G1 E6 F2400
;TYPE:Support material
;WIDTH:0.42
G1 F1200
G1 X114.276 Y175.189 E3.00581
G1 X114.276 Y172.609 E.08089
G1 X117.276 Y172.609 E.09406
G1 X117.276 Y167.955 E.14592
G1 X114.276 Y167.955 E.09406
G1 X114.276 Y165.375 E.08089
G1 X210.142 Y165.375 E3.00581
G1 X210.142 Y175.132 E.30592
G1 X193.749 Y172.609 F9000
G1 F1200
G1 X193.749 Y167.955 E.14592
G1 X198.403 Y167.955 E.14592
G1 X198.403 Y168.458 E.01577
G1 X197.862 Y168.458 E.01696
G1 X197.838 Y168.852 E.01238
G1 X196.846 Y168.852 E.0311
G1 X196.707 Y168.99 E.00614
G1 X196.707 Y171.01 E.06334
G1 X196.846 Y171.148 E.00614
G1 X197.838 Y171.148 E.0311
G1 X197.862 Y171.542 E.01238
G1 X198.403 Y171.542 E.01696
G1 X198.403 Y172.609 E.03346
G1 X193.805 Y172.609 E.14417
G1 E-4.2 F3600
;WIPE_START
G1 F7200
G1 X197.595 Y172.609 E-1.8
;WIPE_END
G1 X199.964 Y168.038 F9000
G1 E6 F2400
G1 F1200
G1 X199.964 Y167.955 E.0026
G1 X202.329 Y167.955 E.07415
G1 X202.329 Y172.609 E.14592
G1 X198.983 Y172.609 E.10491
G1 X198.983 Y171.86 E.02348
G1 X198.814 Y171.691 E.00749
G1 X198.814 Y168.309 E.10604
G1 X199.085 Y168.038 E.01202
G1 X199.908 Y168.038 E.0258
G1 E-4.2 F3600
;WIPE_START
G1 F7200
G1 X199.085 Y168.038 E-.39093
G1 X198.814 Y168.309 E-.18204
G1 X198.814 Y170.893 E-1.22703
;WIPE_END
G1 X209.59 Y175.019 F9000
G1 E6 F2400
G1 F1200
G1 X209.59 Y165.714 E.29175
G1 X209.171 Y165.714 E.01314
G1 X209.171 Y174.849 E.28642
G1 X208.752 Y174.849 E.01314
G1 X208.752 Y165.714 E.28642
G1 X208.333 Y165.714 E.01314
G1 X208.333 Y174.849 E.28642
G1 X207.914 Y174.849 E.01314
G1 X207.914 Y165.714 E.28642
G1 X207.495 Y165.714 E.01314
G1 X207.495 Y174.849 E.28642
G1 X207.076 Y174.849 E.01314
G1 X207.076 Y165.714 E.28642
G1 X206.657 Y165.714 E.01314
G1 X206.657 Y174.849 E.28642
G1 X206.238 Y174.849 E.01314
G1 X206.238 Y165.714 E.28642
G1 X205.819 Y165.714 E.01314
G1 X205.819 Y174.849 E.28642
G1 X205.4 Y174.849 E.01314
G1 X205.4 Y165.714 E.28642
G1 X204.981 Y165.714 E.01314
G1 X204.981 Y174.849 E.28642
G1 X204.562 Y174.849 E.01314
G1 X204.562 Y165.714 E.28642
G1 X204.143 Y165.714 E.01314
G1 X204.143 Y174.849 E.28642
G1 X203.724 Y174.849 E.01314
G1 X203.724 Y165.714 E.28642
G1 X203.305 Y165.714 E.01314
G1 X203.305 Y174.849 E.28642
G1 X202.886 Y174.849 E.01314
G1 X202.886 Y165.714 E.28642
G1 X202.467 Y165.714 E.01314
G1 X202.467 Y167.615 E.0596
G1 X202.048 Y167.615 E.01314
G1 X202.048 Y165.714 E.0596
G1 X201.629 Y165.714 E.01314
G1 X201.629 Y167.615 E.0596
G1 X201.21 Y167.615 E.01314
G1 X201.21 Y165.714 E.0596
G1 X200.791 Y165.714 E.01314
G1 X200.791 Y167.615 E.0596
G1 X200.372 Y167.615 E.01314
G1 X200.372 Y165.714 E.0596
G1 X199.953 Y165.714 E.01314
G1 X199.953 Y167.615 E.0596
G1 X199.625 Y167.615 E.01028
G1 X199.625 Y167.699 E.00263
G1 X199.534 Y167.699 E.00285
G1 X199.534 Y165.714 E.06224
G1 X199.115 Y165.714 E.01314
G1 X199.115 Y167.699 E.06224
G1 X198.944 Y167.699 E.00536
G1 X198.742 Y167.901 E.00896
G1 X198.696 Y165.714 E.06859
G1 X198.277 Y165.714 E.01314
G1 X198.277 Y167.615 E.0596
G1 X197.858 Y167.615 E.01314
G1 X197.858 Y165.714 E.0596
G1 X197.439 Y165.714 E.01314
G1 X197.439 Y167.615 E.0596
G1 X197.02 Y167.615 E.01314
G1 X197.02 Y165.714 E.0596
G1 X196.601 Y165.714 E.01314
G1 X196.601 Y167.615 E.0596
G1 X196.182 Y167.615 E.01314
G1 X196.182 Y165.714 E.0596
G1 X195.763 Y165.714 E.01314
G1 X195.763 Y167.615 E.0596
G1 X195.344 Y167.615 E.01314
G1 X195.344 Y165.714 E.0596
G1 X194.925 Y165.714 E.01314
G1 X194.925 Y167.615 E.0596
G1 X194.506 Y167.615 E.01314
G1 X194.506 Y165.714 E.0596
G1 X194.088 Y165.714 E.01311
G1 X194.088 Y167.615 E.0596
G1 X193.669 Y167.615 E.01314
G1 X193.669 Y165.714 E.0596
G1 X193.25 Y165.714 E.01314
G1 X193.25 Y174.849 E.28642
G1 X193.669 Y174.849 E.01314
G1 X193.669 Y172.948 E.0596
G1 X194.088 Y172.948 E.01314
G1 X194.088 Y174.849 E.0596
G1 X194.506 Y174.849 E.01311
G1 X194.506 Y172.948 E.0596
G1 X194.925 Y172.948 E.01314
G1 X194.925 Y174.849 E.0596
G1 X195.344 Y174.849 E.01314
G1 X195.344 Y172.948 E.0596
G1 X195.763 Y172.948 E.01314
G1 X195.763 Y174.849 E.0596
G1 X196.182 Y174.849 E.01314
G1 X196.182 Y172.948 E.0596
G1 X196.601 Y172.948 E.01314
G1 X196.601 Y174.849 E.0596
G1 X197.02 Y174.849 E.01314
G1 X197.02 Y172.948 E.0596
G1 X197.439 Y172.948 E.01314
G1 X197.439 Y174.849 E.0596
G1 X197.858 Y174.849 E.01314
G1 X197.858 Y172.948 E.0596
G1 X198.277 Y172.948 E.01314
G1 X198.277 Y174.849 E.0596
G1 X198.696 Y174.849 E.01314
G1 X198.696 Y172.948 E.0596
G1 X199.115 Y172.948 E.01314
G1 X199.115 Y174.849 E.0596
G1 X199.534 Y174.849 E.01314
G1 X199.534 Y172.948 E.0596
G1 X199.953 Y172.948 E.01314
G1 X199.953 Y174.849 E.0596
G1 X200.372 Y174.849 E.01314
G1 X200.372 Y172.948 E.0596
G1 X200.791 Y172.948 E.01314
G1 X200.791 Y174.849 E.0596
G1 X201.21 Y174.849 E.01314
G1 X201.21 Y172.948 E.0596
G1 X201.629 Y172.948 E.01314
G1 X201.629 Y174.849 E.0596
G1 X202.048 Y174.849 E.01314
G1 X202.048 Y172.948 E.0596
G1 X202.467 Y172.948 E.01314
G1 X202.467 Y175.019 E.06493
G1 E-4.2 F3600
;WIPE_START
G1 F7200
G1 X202.467 Y172.948 E-.98372
G1 X202.048 Y172.948 E-.19903
G1 X202.048 Y174.248 E-.61725
;WIPE_END
G1 X198.277 Y171.372 F9000
G1 E6 F2400
G1 F1200
G1 X198.277 Y168.797 E.08074
G1 X198.177 Y168.797 E.00314
G1 X198.177 Y169.191 E.01235
G1 X197.858 Y169.191 E.01
G1 X197.858 Y170.809 E.05073
G1 X197.439 Y170.809 E.01314
G1 X197.439 Y169.021 E.05606
G1 E-4.2 F3600
;WIPE_START
G1 F7200
G1 X197.439 Y170.809 E-.8493
G1 X197.858 Y170.809 E-.19903
G1 X197.858 Y169.227 E-.75167
;WIPE_END
G1 X192.831 Y175.019 F9000
G1 E6 F2400
G1 F1200
G1 X192.831 Y165.714 E.29175
G1 X192.412 Y165.714 E.01314
G1 X192.412 Y174.849 E.28642
G1 X191.993 Y174.849 E.01314
G1 X191.993 Y165.714 E.28642
G1 X191.574 Y165.714 E.01314
G1 X191.574 Y174.849 E.28642
G1 X191.155 Y174.849 E.01314
G1 X191.155 Y165.714 E.28642
G1 X190.736 Y165.714 E.01314
G1 X190.736 Y174.849 E.28642
G1 X190.317 Y174.849 E.01314
G1 X190.317 Y165.714 E.28642
G1 X189.898 Y165.714 E.01314
G1 X189.898 Y174.849 E.28642
G1 X189.479 Y174.849 E.01314
G1 X189.479 Y165.714 E.28642
G1 X189.06 Y165.714 E.01314
G1 X189.06 Y174.849 E.28642
G1 X188.641 Y174.849 E.01314
G1 X188.641 Y165.714 E.28642
G1 X188.222 Y165.714 E.01314
G1 X188.222 Y174.849 E.28642
G1 X187.803 Y174.849 E.01314
G1 X187.803 Y165.714 E.28642
G1 X187.384 Y165.714 E.01314
G1 X187.384 Y174.849 E.28642
G1 X186.965 Y174.849 E.01314
G1 X186.965 Y165.714 E.28642
G1 X186.546 Y165.714 E.01314
G1 X186.546 Y174.849 E.28642
G1 X186.127 Y174.849 E.01314
G1 X186.127 Y165.714 E.28642
G1 X185.708 Y165.714 E.01314
G1 X185.708 Y174.849 E.28642
G1 X185.289 Y174.849 E.01314
G1 X185.289 Y165.714 E.28642
G1 X184.87 Y165.714 E.01314
G1 X184.87 Y174.849 E.28642
G1 X184.451 Y174.849 E.01314
G1 X184.451 Y165.714 E.28642
G1 X184.032 Y165.714 E.01314
G1 X184.032 Y174.849 E.28642
G1 X183.613 Y174.849 E.01314
G1 X183.613 Y165.714 E.28642
G1 X183.194 Y165.714 E.01314
G1 X183.194 Y174.849 E.28642
G1 X182.775 Y174.849 E.01314
G1 X182.775 Y165.714 E.28642
G1 X182.356 Y165.714 E.01314
G1 X182.356 Y174.849 E.28642
G1 X181.937 Y174.849 E.01314
G1 X181.937 Y165.714 E.28642
G1 X181.518 Y165.714 E.01314
G1 X181.518 Y174.849 E.28642
G1 X181.099 Y174.849 E.01314
G1 X181.099 Y165.714 E.28642
G1 X180.68 Y165.714 E.01314
G1 X180.68 Y174.849 E.28642
G1 X180.261 Y174.849 E.01314
G1 X180.261 Y165.714 E.28642
G1 X179.842 Y165.714 E.01314
G1 X179.842 Y174.849 E.28642
G1 X179.423 Y174.849 E.01314
G1 X179.423 Y165.714 E.28642
G1 X179.004 Y165.714 E.01314
G1 X179.004 Y174.849 E.28642
G1 X178.585 Y174.849 E.01314
G1 X178.585 Y165.714 E.28642
G1 X178.166 Y165.714 E.01314
G1 X178.166 Y174.849 E.28642
G1 X177.747 Y174.849 E.01314
G1 X177.747 Y165.714 E.28642
G1 X177.328 Y165.714 E.01314
G1 X177.328 Y174.849 E.28642
G1 X176.909 Y174.849 E.01314
G1 X176.909 Y165.714 E.28642
G1 X176.49 Y165.714 E.01314
G1 X176.49 Y174.849 E.28642
G1 X176.072 Y174.849 E.01311
G1 X176.072 Y165.714 E.28642
G1 X175.653 Y165.714 E.01314
G1 X175.653 Y174.849 E.28642
G1 X175.234 Y174.849 E.01314
G1 X175.234 Y165.714 E.28642
G1 X174.815 Y165.714 E.01314
G1 X174.815 Y174.849 E.28642
G1 X174.396 Y174.849 E.01314
G1 X174.396 Y165.714 E.28642
G1 X173.977 Y165.714 E.01314
G1 X173.977 Y174.849 E.28642
G1 X173.558 Y174.849 E.01314
G1 X173.558 Y165.714 E.28642
G1 X173.139 Y165.714 E.01314
G1 X173.139 Y174.849 E.28642
G1 X172.72 Y174.849 E.01314
G1 X172.72 Y165.714 E.28642
G1 X172.301 Y165.714 E.01314
G1 X172.301 Y174.849 E.28642
G1 X171.882 Y174.849 E.01314
G1 X171.882 Y165.714 E.28642
G1 X171.463 Y165.714 E.01314
G1 X171.463 Y174.849 E.28642
G1 X171.044 Y174.849 E.01314
G1 X171.044 Y165.714 E.28642
G1 X170.625 Y165.714 E.01314
G1 X170.625 Y174.849 E.28642
G1 X170.206 Y174.849 E.01314
G1 X170.206 Y165.714 E.28642
G1 X169.787 Y165.714 E.01314
G1 X169.787 Y174.849 E.28642
G1 X169.368 Y174.849 E.01314
G1 X169.368 Y165.714 E.28642
G1 X168.949 Y165.714 E.01314
G1 X168.949 Y174.849 E.28642
G1 X168.53 Y174.849 E.01314
G1 X168.53 Y165.714 E.28642
G1 X168.111 Y165.714 E.01314
G1 X168.111 Y174.849 E.28642
G1 X167.692 Y174.849 E.01314
G1 X167.692 Y165.714 E.28642
G1 X167.273 Y165.714 E.01314
G1 X167.273 Y174.849 E.28642
G1 X166.854 Y174.849 E.01314
G1 X166.854 Y165.714 E.28642
G1 X166.435 Y165.714 E.01314
G1 X166.435 Y174.849 E.28642
G1 X166.016 Y174.849 E.01314
G1 X166.016 Y165.714 E.28642
G1 X165.597 Y165.714 E.01314
G1 X165.597 Y174.849 E.28642
G1 X165.178 Y174.849 E.01314
G1 X165.178 Y165.714 E.28642
G1 X164.759 Y165.714 E.01314
G1 X164.759 Y174.849 E.28642
G1 X164.34 Y174.849 E.01314
G1 X164.34 Y165.714 E.28642
G1 X163.921 Y165.714 E.01314
G1 X163.921 Y174.849 E.28642
G1 X163.502 Y174.849 E.01314
G1 X163.502 Y165.714 E.28642
G1 X163.083 Y165.714 E.01314
G1 X163.083 Y174.849 E.28642
G1 X162.664 Y174.849 E.01314
G1 X162.664 Y165.714 E.28642
G1 X162.245 Y165.714 E.01314
G1 X162.245 Y174.849 E.28642
G1 X161.826 Y174.849 E.01314
G1 X161.826 Y165.714 E.28642
G1 X161.407 Y165.714 E.01314
G1 X161.407 Y174.849 E.28642
G1 X160.988 Y174.849 E.01314
G1 X160.988 Y165.714 E.28642
G1 X160.569 Y165.714 E.01314
G1 X160.569 Y174.849 E.28642
G1 X160.15 Y174.849 E.01314
G1 X160.15 Y165.714 E.28642
G1 X159.731 Y165.714 E.01314
G1 X159.731 Y174.849 E.28642
G1 X159.312 Y174.849 E.01314
G1 X159.312 Y165.714 E.28642
G1 X158.893 Y165.714 E.01314
G1 X158.893 Y174.849 E.28642
G1 X158.474 Y174.849 E.01314
G1 X158.474 Y165.714 E.28642
G1 X158.055 Y165.714 E.01314
G1 X158.055 Y174.849 E.28642
G1 X157.637 Y174.849 E.01311
G1 X157.637 Y165.714 E.28642
G1 X157.218 Y165.714 E.01314
G1 X157.218 Y174.849 E.28642
G1 X156.799 Y174.849 E.01314
G1 X156.799 Y165.714 E.28642
G1 X156.38 Y165.714 E.01314
G1 X156.38 Y174.849 E.28642
G1 X155.961 Y174.849 E.01314
G1 X155.961 Y165.714 E.28642
G1 X155.542 Y165.714 E.01314
G1 X155.542 Y174.849 E.28642
G1 X155.123 Y174.849 E.01314
G1 X155.123 Y165.714 E.28642
G1 X154.704 Y165.714 E.01314
G1 X154.704 Y174.849 E.28642
G1 X154.285 Y174.849 E.01314
G1 X154.285 Y165.714 E.28642
G1 X153.866 Y165.714 E.01314
G1 X153.866 Y174.849 E.28642
G1 X153.447 Y174.849 E.01314
G1 X153.447 Y165.714 E.28642
G1 X153.028 Y165.714 E.01314
G1 X153.028 Y174.849 E.28642
G1 X152.609 Y174.849 E.01314
G1 X152.609 Y165.714 E.28642
G1 X152.19 Y165.714 E.01314
G1 X152.19 Y174.849 E.28642
G1 X151.771 Y174.849 E.01314
G1 X151.771 Y165.714 E.28642
G1 X151.352 Y165.714 E.01314
G1 X151.352 Y174.849 E.28642
G1 X150.933 Y174.849 E.01314
G1 X150.933 Y165.714 E.28642
G1 X150.514 Y165.714 E.01314
G1 X150.514 Y174.849 E.28642
G1 X150.095 Y174.849 E.01314
G1 X150.095 Y165.714 E.28642
G1 X149.676 Y165.714 E.01314
G1 X149.676 Y174.849 E.28642
G1 X149.257 Y174.849 E.01314
G1 X149.257 Y165.714 E.28642
G1 X148.838 Y165.714 E.01314
G1 X148.838 Y174.849 E.28642
G1 X148.419 Y174.849 E.01314
G1 X148.419 Y165.714 E.28642
G1 X148 Y165.714 E.01314
G1 X148 Y174.849 E.28642
G1 X147.581 Y174.849 E.01314
G1 X147.581 Y165.714 E.28642
G1 X147.162 Y165.714 E.01314
G1 X147.162 Y174.849 E.28642
G1 X146.743 Y174.849 E.01314
G1 X146.743 Y165.714 E.28642
