; generated by PrusaSlicer 2.7.1+win64 on 2024-02-18 at 21:17:43 UTC

; 

; external perimeters extrusion width = 0.42mm
; perimeters extrusion width = 0.44mm
; infill extrusion width = 0.44mm
; solid infill extrusion width = 0.44mm
; top infill extrusion width = 0.40mm
; support material extrusion width = 0.36mm
; first layer extrusion width = 0.42mm

M201 X500 Y500 Z100 E5000 ; sets maximum accelerations, mm/sec^2
M203 X500 Y500 Z10 E60 ; sets maximum feedrates, mm / sec
M204 S500 T1000 ; sets acceleration (S) and retract acceleration (R), mm/sec^2
M205 X8.00 Y8.00 Z0.40 E5.00 ; sets the jerk limits, mm/sec
M205 S0 T0 ; sets the minimum extruding and travel feed rate, mm/sec

; printing object second_junction.stl id:0 copy 0
; stop printing object second_junction.stl id:0 copy 0

;TYPE:Custom
G90 ; use absolute coordinates
M83 ; extruder relative mode
M104 S150 ; set temporary nozzle temp to prevent oozing during homing and auto bed leveling
M140 S60 ; set final bed temp
M190 S60 ; wait for bed temp to stabilize
G28 ; home all axis
G29 ; auto bed levelling
G1 Z50 F240
G1 X2.0 Y10 F3000
M104 S210 ; set final nozzle temp
M109 S210 ; wait for nozzle temp to stabilize
G1 Z0.28 F240
G92 E0
G1 X2.0 Y140 E10 F1500 ; prime the nozzle
G1 X2.3 Y140 F5000
G92 E0
G1 X2.3 Y10 E10 F1200 ; prime the nozzle
G92 E0
G21 ; set units to millimeters
G90 ; use absolute coordinates
M83 ; use relative distances for extrusion
; Filament gcode
M107
;LAYER_CHANGE
;Z:0.2
;HEIGHT:0.2
;BEFORE_LAYER_CHANGE
G92 E0
;0.2


G1 E-6 F3600
G1 Z.2 F9000
;AFTER_LAYER_CHANGE
;0.2
G1 X124.975 Y117.297
G1 Z.2
G1 E6 F2400
M204 S500
;TYPE:Skirt/Brim
;WIDTH:0.42
G1 F1200
G1 X126.969 Y116.623 E.066
G1 X173.231 Y116.2 E1.45057
G1 X176.497 Y116.2 E.1024
G1 X178.08 Y116.594 E.05115
G1 X179.294 Y117.685 E.05118
G1 X179.874 Y119.577 E.06205
G1 X179.874 Y179.114 E1.86674
G1 X179.48 Y180.697 E.05115
G1 X178.39 Y181.911 E.05116
G1 X177.326 Y182.388 E.03656
G1 X173.829 Y183.274 E.11311
G1 X173 Y183.377 E.02619
G1 X127 Y183.377 E1.4423
G1 X125.417 Y182.983 E.05115
G1 X123.945 Y181.438 E.06691
G1 X120.448 Y174.01 E.25742
G1 X120.126 Y172.572 E.0462
G1 X120.126 Y127.428 E1.41546
G1 X120.448 Y125.99 E.0462
G1 X123.945 Y118.562 E.25742
G1 X124.938 Y117.344 E.04927
; printing object second_junction.stl id:0 copy 0
G1 E-4.2 F3600
;WIPE_START
G1 F7200
G1 X124.975 Y117.297 E-.02841
G1 X126.969 Y116.623 E-.99979
G1 X128.594 Y116.608 E-.7718
;WIPE_END
G1 X176.497 Y179.114 F9000
G1 E6 F2400
;TYPE:Support material
G1 F1200
G1 X173.462 Y179.114 E.09516
G1 X173.462 Y164.066 E.47182
G1 X176.497 Y164.066 E.09516
G1 X176.497 Y179.058 E.47006
G1 X175.977 Y178.944 F9000
G1 F1200
G1 X175.977 Y164.406 E.45583
G1 X175.558 Y164.406 E.01314
G1 X175.558 Y178.775 E.45053
G1 X175.139 Y178.775 E.01314
G1 X175.139 Y164.406 E.45053
G1 X174.72 Y164.406 E.01314
G1 X174.72 Y178.775 E.45053
G1 X174.301 Y178.775 E.01314
G1 X174.301 Y164.406 E.45053
G1 X173.882 Y164.406 E.01314
G1 X173.882 Y178.944 E.45583
G1 E-4.2 F3600
;WIPE_START
G1 F7200
G1 X173.882 Y175.154 E-1.8
;WIPE_END
G1 X176.497 Y163.412 F9000
G1 E6 F2400
G1 F1200
G1 X173.462 Y163.412 E.09516
G1 X173.462 Y156.215 E.22566
G1 X176.497 Y156.215 E.09516
G1 X176.497 Y163.356 E.2239
G1 X175.977 Y163.242 F9000
G1 F1200
G1 X175.977 Y156.555 E.20967
G1 X175.558 Y156.555 E.01314
G1 X175.558 Y163.073 E.20437
G1 X175.139 Y163.073 E.01314
G1 X175.139 Y156.555 E.20437
G1 X174.72 Y156.555 E.01314
G1 X174.72 Y163.073 E.20437
G1 X174.301 Y163.073 E.01314
G1 X174.301 Y156.555 E.20437
G1 X173.882 Y156.555 E.01314
G1 X173.882 Y163.242 E.20967
G1 E-4.2 F3600
;WIPE_START
G1 F7200
G1 X173.882 Y159.452 E-1.8
;WIPE_END
G1 X176.497 Y142.476 F9000
G1 E6 F2400
G1 F1200
G1 X173.462 Y142.476 E.09516
G1 X173.462 Y127.428 E.47182
G1 X176.497 Y127.428 E.09516
G1 X176.497 Y142.42 E.47006
G1 X175.977 Y142.307 F9000
G1 F1200
G1 X175.977 Y127.768 E.45586
G1 X175.558 Y127.768 E.01314
G1 X175.558 Y142.137 E.45053
G1 X175.139 Y142.137 E.01314
G1 X175.139 Y127.768 E.45053
G1 X174.72 Y127.768 E.01314
G1 X174.72 Y142.137 E.45053
G1 X174.301 Y142.137 E.01314
G1 X174.301 Y127.768 E.45053
G1 X173.882 Y127.768 E.01314
G1 X173.882 Y142.307 E.45586
G1 E-4.2 F3600
;WIPE_START
G1 F7200
G1 X173.882 Y138.517 E-1.8
;WIPE_END
G1 X176.497 Y126.774 F9000
G1 E6 F2400
G1 F1200
G1 X173.462 Y126.774 E.09516
G1 X173.462 Y119.809 E.21838
G1 X173.231 Y119.577 E.01027
G1 X176.497 Y119.577 E.1024
G1 X176.497 Y126.718 E.2239
G1 X175.977 Y126.605 F9000
G1 F1200
G1 X175.977 Y119.917 E.2097
G1 X175.558 Y119.917 E.01314
G1 X175.558 Y126.435 E.20437
G1 X175.139 Y126.435 E.01314
G1 X175.139 Y119.917 E.20437
G1 X174.72 Y119.917 E.01314
G1 X174.72 Y126.435 E.20437
G1 X174.301 Y126.435 E.01314
G1 X174.301 Y119.917 E.20437
G1 X173.882 Y119.917 E.01314
G1 X173.882 Y126.605 E.2097
G1 E-4.2 F3600
;WIPE_START
G1 F7200
G1 X173.882 Y122.815 E-1.8
;WIPE_END
G1 X126.538 Y135.934 F9000
G1 E6 F2400
G1 F1200
G1 X123.503 Y135.934 E.09516
G1 X123.503 Y127.428 E.2667
G1 X126.538 Y127.428 E.09516
G1 X126.538 Y135.877 E.26491
G1 X126.118 Y135.764 F9000
G1 F1200
G1 X126.118 Y127.768 E.25071
G1 X125.699 Y127.768 E.01314
G1 X125.699 Y135.594 E.24538
G1 X125.28 Y135.594 E.01314
G1 X125.28 Y127.768 E.24538
G1 X124.861 Y127.768 E.01314
G1 X124.861 Y135.594 E.24538
G1 X124.442 Y135.594 E.01314
G1 X124.442 Y127.768 E.24538
G1 X124.023 Y127.768 E.01314
G1 X124.023 Y135.764 E.25071
G1 E-4.2 F3600
;WIPE_START
G1 F7200
G1 X124.023 Y131.974 E-1.8
;WIPE_END
G1 X126.538 Y172.572 F9000
G1 E6 F2400
G1 F1200
G1 X123.503 Y172.572 E.09516
G1 X123.503 Y164.066 E.2667
G1 X126.538 Y164.066 E.09516
G1 X126.538 Y172.515 E.26491
G1 X126.118 Y172.402 F9000
G1 F1200
G1 X126.118 Y164.406 E.25071
G1 X125.699 Y164.406 E.01314
G1 X125.699 Y172.232 E.24538
G1 X125.28 Y172.232 E.01314
G1 X125.28 Y164.406 E.24538
G1 X124.861 Y164.406 E.01314
G1 X124.861 Y172.232 E.24538
G1 X124.442 Y172.232 E.01314
G1 X124.442 Y164.406 E.24538
G1 X124.023 Y164.406 E.01314
G1 X124.023 Y172.402 E.25071
G1 E-4.2 F3600
;WIPE_START
G1 F7200
G1 X124.023 Y168.612 E-1.8
;WIPE_END
G1 X128.064 Y178.936 F9000
G1 E6 F2400
;TYPE:Perimeter
;WIDTH:0.419999
G1 F1200
G1 X128.064 Y121.064 E1.81453
G1 X171.936 Y121.064 E1.37557
G1 X171.936 Y143 E.68779
G1 X171.936 Y178.936 E1.12675
G1 X128.124 Y178.936 E1.37369
G1 X127.687 Y179.313 F9000
G1 F1200
G1 X127.687 Y120.687 E1.83817
G1 X172.313 Y120.687 E1.39921
G1 X172.313 Y143 E.69961
G1 X172.313 Y179.313 E1.13857
G1 X127.747 Y179.313 E1.39733
G1 X127.31 Y179.69 F9000
;TYPE:External perimeter
G1 F1200
G1 X127.31 Y120.31 E1.86182
G1 X172.69 Y120.31 E1.42286
G1 X172.69 Y143 E.71143
G1 X172.69 Y179.69 E1.15039
G1 X127.37 Y179.69 E1.42097
G1 E-4.2 F3600
;WIPE_START
G1 F7200
G1 X127.31 Y179.69 E-.0285
G1 X127.31 Y175.961 E-1.7715
;WIPE_END
G1 X171.053 Y121.185 F9000
G1 E6 F2400
;TYPE:Solid infill
;WIDTH:0.420054
G1 F1200
G1 X171.645 Y121.778 E.02628
G1 X171.645 Y122.311 E.01671
G1 X170.689 Y121.355 E.0424
G1 X170.156 Y121.355 E.01671
G1 X171.645 Y122.844 E.06603
G1 X171.645 Y123.378 E.01675
G1 X169.622 Y121.355 E.08972
G1 X169.089 Y121.355 E.01671
G1 X171.645 Y123.911 E.11335
G1 X171.645 Y124.444 E.01671
G1 X168.556 Y121.355 E.13699
G1 X168.022 Y121.355 E.01675
G1 X171.645 Y124.978 E.16067
G1 X171.645 Y125.511 E.01671
G1 X167.489 Y121.355 E.18431
G1 X166.956 Y121.355 E.01671
G1 X171.645 Y126.044 E.20795
G1 X171.645 Y126.578 E.01675
G1 X166.422 Y121.355 E.23163
G1 X165.889 Y121.355 E.01671
G1 X171.645 Y127.111 E.25527
G1 X171.645 Y127.644 E.01671
G1 X165.356 Y121.355 E.27891
G1 X164.822 Y121.355 E.01675
G1 X171.645 Y128.178 E.30259
G1 X171.645 Y128.711 E.01671
G1 X164.289 Y121.355 E.32622
G1 X163.756 Y121.355 E.01671
G1 X171.645 Y129.244 E.34986
G1 X171.645 Y129.778 E.01675
G1 X163.222 Y121.355 E.37354
G1 X162.689 Y121.355 E.01671
G1 X171.645 Y130.311 E.39718
G1 X171.645 Y130.844 E.01671
G1 X162.156 Y121.355 E.42082
G1 X161.622 Y121.355 E.01675
G1 X171.645 Y131.378 E.4445
G1 X171.645 Y131.911 E.01671
G1 X161.089 Y121.355 E.46814
G1 X160.556 Y121.355 E.01671
G1 X171.645 Y132.444 E.49178
G1 X171.645 Y132.978 E.01675
G1 X160.022 Y121.355 E.51546
G1 X159.489 Y121.355 E.01671
G1 X171.645 Y133.511 E.5391
G1 X171.645 Y134.045 E.01675
G1 X158.955 Y121.355 E.56278
G1 X158.422 Y121.355 E.01671
G1 X171.645 Y134.578 E.58641
G1 X171.645 Y135.111 E.01671
G1 X157.889 Y121.355 E.61005
G1 X157.355 Y121.355 E.01675
G1 X171.645 Y135.645 E.63373
G1 X171.645 Y136.178 E.01671
G1 X156.822 Y121.355 E.65737
G1 X156.289 Y121.355 E.01671
G1 X171.645 Y136.711 E.68101
G1 X171.645 Y137.245 E.01675
G1 X155.755 Y121.355 E.70469
G1 X155.222 Y121.355 E.01671
G1 X171.645 Y137.778 E.72833
G1 X171.645 Y138.311 E.01671
G1 X154.689 Y121.355 E.75197
G1 X154.155 Y121.355 E.01675
G1 X171.645 Y138.845 E.77565
G1 X171.645 Y139.378 E.01671
G1 X153.622 Y121.355 E.79929
G1 X153.089 Y121.355 E.01671
G1 X171.645 Y139.911 E.82292
G1 X171.645 Y140.445 E.01675
G1 X152.555 Y121.355 E.8466
G1 X152.022 Y121.355 E.01671
G1 X171.645 Y140.978 E.87024
G1 X171.645 Y141.511 E.01671
G1 X151.489 Y121.355 E.89388
G1 X150.955 Y121.355 E.01675
G1 X171.645 Y142.045 E.91756
G1 X171.645 Y142.578 E.01671
G1 X150.422 Y121.355 E.9412
G1 X149.889 Y121.355 E.01671
G1 X171.645 Y143.111 E.96484
G1 X171.645 Y143.645 E.01675
G1 X149.355 Y121.355 E.98852
G1 X148.822 Y121.355 E.01671
G1 X171.645 Y144.178 E1.01216
G1 X171.645 Y144.711 E.01671
G1 X148.289 Y121.355 E1.03579
G1 X147.755 Y121.355 E.01675
G1 X171.645 Y145.245 E1.05948
G1 X171.645 Y145.778 E.01671
G1 X147.222 Y121.355 E1.08311
G1 X146.688 Y121.355 E.01675
G1 X171.645 Y146.312 E1.10679
G1 X171.645 Y146.845 E.01671
G1 X146.155 Y121.355 E1.13043
G1 X145.622 Y121.355 E.01671
G1 X171.645 Y147.378 E1.15407
G1 X171.645 Y147.912 E.01675
G1 X145.088 Y121.355 E1.17775
G1 X144.555 Y121.355 E.01671
G1 X171.645 Y148.445 E1.20139
G1 X171.645 Y148.978 E.01671
G1 X144.022 Y121.355 E1.22503
G1 X143.488 Y121.355 E.01675
G1 X171.645 Y149.512 E1.24871
G1 X171.645 Y150.045 E.01671
G1 X142.955 Y121.355 E1.27235
G1 X142.422 Y121.355 E.01671
G1 X171.645 Y150.578 E1.29598
G1 X171.645 Y151.112 E.01675
G1 X141.888 Y121.355 E1.31967
G1 X141.355 Y121.355 E.01671
G1 X171.645 Y151.645 E1.3433
G1 X171.645 Y152.178 E.01671
G1 X140.822 Y121.355 E1.36694
G1 X140.288 Y121.355 E.01675
G1 X171.645 Y152.712 E1.39062
G1 X171.645 Y153.245 E.01671
G1 X139.755 Y121.355 E1.41426
G1 X139.222 Y121.355 E.01671
G1 X171.645 Y153.778 E1.4379
G1 X171.645 Y154.312 E.01675
G1 X138.688 Y121.355 E1.46158
G1 X138.155 Y121.355 E.01671
G1 X171.645 Y154.845 E1.48522
G1 X171.645 Y155.378 E.01671
G1 X137.622 Y121.355 E1.50885
G1 X137.088 Y121.355 E.01675
G1 X171.645 Y155.912 E1.53254
G1 X171.645 Y156.445 E.01671
G1 X136.555 Y121.355 E1.55617
G1 X136.022 Y121.355 E.01671
G1 X171.645 Y156.978 E1.57981
G1 X171.645 Y157.512 E.01675
G1 X135.488 Y121.355 E1.60349
G1 X134.955 Y121.355 E.01671
G1 X171.645 Y158.045 E1.62713
G1 X171.645 Y158.579 E.01675
G1 X134.421 Y121.355 E1.65081
G1 X133.888 Y121.355 E.01671
G1 X171.645 Y159.112 E1.67445
G1 X171.645 Y159.645 E.01671
G1 X133.355 Y121.355 E1.69809
G1 X132.821 Y121.355 E.01675
G1 X171.645 Y160.179 E1.72177
G1 X171.645 Y160.712 E.01671
G1 X132.288 Y121.355 E1.74541
G1 X131.755 Y121.355 E.01671
G1 X171.645 Y161.245 E1.76904
G1 X171.645 Y161.779 E.01675
G1 X131.221 Y121.355 E1.79273
G1 X130.688 Y121.355 E.01671
G1 X171.645 Y162.312 E1.81636
G1 X171.645 Y162.845 E.01671
G1 X130.155 Y121.355 E1.84
G1 X129.621 Y121.355 E.01675
G1 X171.645 Y163.379 E1.86368
G1 X171.645 Y163.912 E.01671
G1 X129.088 Y121.355 E1.88732
G1 X128.555 Y121.355 E.01671
G1 X171.645 Y164.445 E1.91096
G1 X171.645 Y164.979 E.01675
G1 X128.355 Y121.688 E1.91985
G1 X128.355 Y122.221 E.01671
G1 X171.645 Y165.512 E1.91985
G1 X171.645 Y166.045 E.01671
G1 X128.355 Y122.754 E1.91985
G1 X128.355 Y123.288 E.01675
G1 X171.645 Y166.579 E1.91985
G1 X171.645 Y167.112 E.01671
G1 X128.355 Y123.821 E1.91985
G1 X128.355 Y124.354 E.01671
G1 X171.645 Y167.645 E1.91985
G1 X171.645 Y168.179 E.01675
G1 X128.355 Y124.888 E1.91985
G1 X128.355 Y125.421 E.01671
G1 X171.645 Y168.712 E1.91985
G1 X171.645 Y169.245 E.01671
G1 X128.355 Y125.955 E1.91983
G1 X128.355 Y126.488 E.01671
G1 X171.645 Y169.779 E1.91985
G1 X171.645 Y170.312 E.01671
G1 X128.355 Y127.021 E1.91985
G1 X128.355 Y127.555 E.01675
G1 X171.645 Y170.846 E1.91985
G1 X171.645 Y171.379 E.01671
G1 X128.355 Y128.088 E1.91985
G1 X128.355 Y128.621 E.01671
G1 X171.645 Y171.912 E1.91985
G1 X171.645 Y172.446 E.01675
G1 X128.355 Y129.155 E1.91985
G1 X128.355 Y129.688 E.01671
G1 X171.645 Y172.979 E1.91985
G1 X171.645 Y173.512 E.01671
G1 X128.355 Y130.221 E1.91985
G1 X128.355 Y130.755 E.01675
G1 X171.645 Y174.046 E1.91985
G1 X171.645 Y174.579 E.01671
G1 X128.355 Y131.288 E1.91985
G1 X128.355 Y131.821 E.01671
G1 X171.645 Y175.112 E1.91985
G1 X171.645 Y175.646 E.01675
G1 X128.355 Y132.355 E1.91985
G1 X128.355 Y132.888 E.01671
G1 X171.645 Y176.179 E1.91985
G1 X171.645 Y176.712 E.01671
G1 X128.355 Y133.421 E1.91985
G1 X128.355 Y133.955 E.01675
G1 X171.645 Y177.246 E1.91985
G1 X171.645 Y177.779 E.01671
G1 X128.355 Y134.488 E1.91985
G1 X128.355 Y135.021 E.01671
G1 X171.645 Y178.312 E1.91985
G1 X171.645 Y178.645 E.01044
G1 X171.445 Y178.645 E.00627
G1 X128.355 Y135.555 E1.91096
G1 X128.355 Y136.088 E.01671
G1 X170.912 Y178.645 E1.88732
G1 X170.379 Y178.645 E.01671
G1 X128.355 Y136.621 E1.86368
G1 X128.355 Y137.155 E.01675
G1 X169.845 Y178.645 E1.84
G1 X169.312 Y178.645 E.01671
G1 X128.355 Y137.688 E1.81636
G1 X128.355 Y138.222 E.01675
G1 X168.778 Y178.645 E1.79268
G1 X168.245 Y178.645 E.01671
G1 X128.355 Y138.755 E1.76904
G1 X128.355 Y139.288 E.01671
G1 X167.712 Y178.645 E1.74541
G1 X167.178 Y178.645 E.01675
G1 X128.355 Y139.822 E1.72173
G1 X128.355 Y140.355 E.01671
G1 X166.645 Y178.645 E1.69809
G1 X166.112 Y178.645 E.01671
G1 X128.355 Y140.888 E1.67445
G1 X128.355 Y141.422 E.01675
G1 X165.578 Y178.645 E1.65077
G1 X165.045 Y178.645 E.01671
G1 X128.355 Y141.955 E1.62713
G1 X128.355 Y142.488 E.01671
G1 X164.512 Y178.645 E1.60349
G1 X163.978 Y178.645 E.01675
G1 X128.355 Y143.022 E1.57981
G1 X128.355 Y143.555 E.01671
G1 X163.445 Y178.645 E1.55617
G1 X162.912 Y178.645 E.01671
G1 X128.355 Y144.088 E1.53254
G1 X128.355 Y144.622 E.01675
G1 X162.378 Y178.645 E1.50885
G1 X161.845 Y178.645 E.01671
G1 X128.355 Y145.155 E1.48522
G1 X128.355 Y145.688 E.01671
G1 X161.312 Y178.645 E1.46158
G1 X160.778 Y178.645 E.01675
G1 X128.355 Y146.222 E1.4379
G1 X128.355 Y146.755 E.01671
G1 X160.245 Y178.645 E1.41426
G1 X159.712 Y178.645 E.01671
G1 X128.355 Y147.288 E1.39062
G1 X128.355 Y147.822 E.01675
G1 X159.178 Y178.645 E1.36694
G1 X158.645 Y178.645 E.01671
G1 X128.355 Y148.355 E1.3433
G1 X128.355 Y148.888 E.01671
G1 X158.112 Y178.645 E1.31967
G1 X157.578 Y178.645 E.01675
G1 X128.355 Y149.422 E1.29598
G1 X128.355 Y149.955 E.01671
G1 X157.045 Y178.645 E1.27235
G1 X156.511 Y178.645 E.01675
G1 X128.355 Y150.489 E1.24866
G1 X128.355 Y151.022 E.01671
G1 X155.978 Y178.645 E1.22503
G1 X155.445 Y178.645 E.01671
G1 X128.355 Y151.555 E1.20139
G1 X128.355 Y152.089 E.01675
G1 X154.911 Y178.645 E1.17771
G1 X154.378 Y178.645 E.01671
G1 X128.355 Y152.622 E1.15407
G1 X128.355 Y153.155 E.01671
G1 X153.845 Y178.645 E1.13043
G1 X153.311 Y178.645 E.01675
G1 X128.355 Y153.689 E1.10675
G1 X128.355 Y154.222 E.01671
G1 X152.778 Y178.645 E1.08311
G1 X152.245 Y178.645 E.01671
G1 X128.355 Y154.755 E1.05948
G1 X128.355 Y155.289 E.01675
G1 X151.711 Y178.645 E1.03579
G1 X151.178 Y178.645 E.01671
G1 X128.355 Y155.822 E1.01216
G1 X128.355 Y156.355 E.01671
G1 X150.645 Y178.645 E.98852
G1 X150.111 Y178.645 E.01675
G1 X128.355 Y156.889 E.96484
G1 X128.355 Y157.422 E.01671
G1 X149.578 Y178.645 E.9412
G1 X149.045 Y178.645 E.01671
G1 X128.355 Y157.955 E.91756
G1 X128.355 Y158.489 E.01675
G1 X148.511 Y178.645 E.89388
G1 X147.978 Y178.645 E.01671
G1 X128.355 Y159.022 E.87024
G1 X128.355 Y159.555 E.01671
G1 X147.445 Y178.645 E.8466
G1 X146.911 Y178.645 E.01675
G1 X128.355 Y160.089 E.82292
G1 X128.355 Y160.622 E.01671
G1 X146.378 Y178.645 E.79929
G1 X145.845 Y178.645 E.01671
G1 X128.355 Y161.155 E.77565
G1 X128.355 Y161.689 E.01675
G1 X145.311 Y178.645 E.75197
